img/clock.svg

<svg width="34" height="34" viewBox="0 0 34 34" fill="none" xmlns="http://www.w3.org/2000/svg">
<path d="M22.5 24.8334L24.8333 22.5L18.6667 16.3334V8.66671H15.3333V17.6667L22.5 24.8334ZM17 33.6667C14.6945 33.6667 12.5278 33.2289 10.5 32.3534C8.47223 31.4789 6.70834 30.2917 5.20834 28.7917C3.70834 27.2917 2.52112 25.5278 1.64668 23.5C0.771121 21.4723 0.333344 19.3056 0.333344 17C0.333344 14.6945 0.771121 12.5278 1.64668 10.5C2.52112 8.47226 3.70834 6.70837 5.20834 5.20837C6.70834 3.70837 8.47223 2.5206 10.5 1.64504C12.5278 0.770596 14.6945 0.333374 17 0.333374C19.3056 0.333374 21.4722 0.770596 23.5 1.64504C25.5278 2.5206 27.2917 3.70837 28.7917 5.20837C30.2917 6.70837 31.4789 8.47226 32.3533 10.5C33.2289 12.5278 33.6667 14.6945 33.6667 17C33.6667 19.3056 33.2289 21.4723 32.3533 23.5C31.4789 25.5278 30.2917 27.2917 28.7917 28.7917C27.2917 30.2917 25.5278 31.4789 23.5 32.3534C21.4722 33.2289 19.3056 33.6667 17 33.6667ZM17 30.3334C20.6945 30.3334 23.8406 29.035 26.4383 26.4384C29.035 23.8406 30.3333 20.6945 30.3333 17C30.3333 13.3056 29.035 10.1595 26.4383 7.56171C23.8406 4.96504 20.6945 3.66671 17 3.66671C13.3056 3.66671 10.16 4.96504 7.56334 7.56171C4.96557 10.1595 3.66668 13.3056 3.66668 17C3.66668 20.6945 4.96557 23.8406 7.56334 26.4384C10.16 29.035 13.3056 30.3334 17 30.3334Z" fill="#1C1B1F"/>
</svg>

<svg width="34" height="34" fill="none" xmlns="http://www.w3.org/2000/svg"><path d="M22.5 24.833l2.333-2.333-6.166-6.167V8.667h-3.334v9l7.167 7.166zM17 33.667c-2.306 0-4.472-.438-6.5-1.314-2.028-.874-3.792-2.061-5.292-3.561S2.521 25.528 1.647 23.5C.77 21.472.333 19.306.333 17s.438-4.472 1.314-6.5c.874-2.028 2.061-3.792 3.561-5.292S8.472 2.521 10.5 1.645C12.528.771 14.694.333 17 .333s4.472.438 6.5 1.312c2.028.876 3.792 2.063 5.292 3.563s2.687 3.264 3.561 5.292c.876 2.028 1.314 4.194 1.314 6.5s-.438 4.472-1.314 6.5c-.874 2.028-2.061 3.792-3.561 5.292s-3.264 2.687-5.292 3.561c-2.028.876-4.194 1.314-6.5 1.314zm0-3.334c3.695 0 6.84-1.298 9.438-3.895 2.597-2.597 3.895-5.743 3.895-9.438 0-3.694-1.298-6.84-3.895-9.438C23.841 4.965 20.695 3.667 17 3.667c-3.694 0-6.84 1.298-9.437 3.895C4.966 10.159 3.667 13.306 3.667 17c0 3.695 1.299 6.84 3.896 9.438 2.597 2.597 5.743 3.895 9.437 3.895z" fill="#1C1B1F"/></svg>
